X:1
T:The Fairy Dance
T:The Fairy Dance
T:Nathaniel Gow 1802
C:Nathaniel Gow 1802
L:1/8
M:2/2
K:D
V:1 treble 
V:1
"D"{de} f2 fd f2 fd | f2 fd"A" cAec |"D" f2 fd"Em" gfed |"A7" cABc"D" d2 de |"D" f2 fd f2 fd | %5
 f2 fd"A" cAec |"D" f2 fd"Em" gfed |"A7" cA"A7"Bc"D" de"A7"fg |"D" a2 af"B7" [^db]2 ba | %9
"Em" gfge"A" [ca]2 ag |"D" fefd"G" B2 ge |"A" cABc"Bm" de"A7"fg |"D" a2 af"B7" [^db]2 ba | %13
"Em" gfge"A" a2 ag |"D" fefd"G" B2 ge |"A" cABc"D" d2 z2 |] %16

